X:1
T:I Am on My Way to Heaven
T:Herbert J. Lacey, 1904
T:I Am on My Way to Heaven
T:Public Domain
T:Public Domain
T:Public Domain
C:Herbert J. Lacey, 1904
Z:Public Domain
%%score ( 1 2 ) 3
L:1/8
M:4/4
K:Eb
V:1 treble 
V:2 treble 
V:3 bass 
V:1
 E>[EG] | [GB]>[GB] [GB]>[Ac] [GB]>[EG] E>[EG] | [GB]>[GB] [GB]>[Ac] [GB]2 A>G | F2 (F>F FF) G>F | %4
w: 1.~I am|my way to heav- en where the saints|robed in white Shout- ing glo- ry,|shout- ing * * * glo- ry!|
w: 2.~I am|my way to heav- en where the streets|paved with gold, Shout- ing glo- ry,|shout- ing * * * glo- ry!|
w: 3.~I am|my way to heav- en, bless- èd land|pure de- light, Shout- ing glo- ry,|shout- ing * * * glo- ry!|
w: 4.~I am|my way to heav- en where I’ll see|Sav- ior’s face Shout- ing glo- ry,|shout- ing * * * glo- ry!|
 E2 (G>G GG) E>[EG] | [GB]>[GB] [GB]>[Ac] [GB]>[EG] E>[EG] | [GB]>[GB] [GB]>[Ac] [GB]2 A>G | %7
w: that bless- * * * èd land|mor- tal where can nev- er come the|Shout- ing glo- ry all the way!|
w: the place * * * of ma-|man- sions and of glor- ies yet un-|Shout- ing glo- ry all the way!|
w: the blest * * * of ev-|na- tion are for- ev- er clothed in|Shout- ing glo- ry all the way!|
w: I’ll sing * * * re- demp-|sto- ry, bless- èd song of sav- ing|Shout- ing glo- ry all the way!|
 F2 (F>F FF) G>F | (z2 C>C B,2) |:"^Refrain" [GB]2 | [Ac]>[Ac] [Ac]>[Ac] [Ac][ce][Bd][Ac] | %11
w: ||||
w: O glo- * * * ry, hal-|||jah! I am on the way to heav-|
w: ||||
w: ||||
 [GB]>[GB] [GB]>[Ac] [GB][EG] F>E | D2 (F>F FF) G>F | E2 (G>G GG) :| G>F | (z2 C>C B,2) |] %16
w: |||||
w: en, Shout- ing glo- ry, shout- ing glo-|ry all * * * the way!||||
w: |||||
w: |||||
V:2
 E3/2 x/ | x6 E3/2 x/ | x8 | x2 B4 x2 | x2 B4 x2 | x6 E3/2 x/ | x8 | x2 B4 x2 | E6 |: x2 | x8 | %11
w: on|are||To|im-|night,||||||
w: on|are||To|ny|told,||le-|lu-|||
w: on|of||Where|ery|white,||||||
w: on|my||There|tion’s|grace,||||||
 x8 | x2 B4 x2 | x2 B4 :| x2 | E6 |] %16
w: |||||
w: |||||
w: |||||
w: |||||
V:3
 [E,G,]>[E,B,] | [E,E]>[E,E] [E,E]>[E,E] [E,E]>[E,B,] [E,G,]>[E,B,] | %2
w: ~ ~|~ ~ ~ ~ ~ ~ ~ ~|
 [E,E]>[E,E] [E,E]>[E,E] [E,E]2 z2 | z2 [B,D]>[B,D] [B,D][B,D] z2 | %4
w: ~ ~ ~ ~ ~|Hal- le- lu- jah!|
 z2 [E,E]>[E,E] [E,E][E,E] [E,G,]>[E,B,] | [E,E]>[E,E] [E,E]>[E,E] [E,E]>[E,B,] [E,G,]>[E,B,] | %6
w: Hal- le- lu- jah! ~ ~|~ ~ ~ ~ ~ ~ ~ ~|
 [E,E]>[E,E] [E,E]>[E,E] [E,E]2 z2 | z2 [B,D]>[B,D] [B,D][B,D] z2 | z2 [E,A,]>[E,A,] [E,G,]2 |: %9
w: ~ ~ ~ ~ ~|Hal- le- lu- jah!|all the way!|
 [E,E]2 | [A,E]>[A,E] [A,E]>[A,E] [A,E][A,C][A,D][A,E] | [E,E]>[E,E] [E,E]>[E,E] [E,E][E,B,] z2 | %12
w: ~|~ ~ ~ ~ ~ ~ ~ ~|~ ~ ~ ~ ~ ~|
 z2 [B,D]>[B,D] [B,D][B,D] z2 | z2 [E,E]>[E,E] [E,E][E,E] :| z2 | z2 [E,A,]>[E,A,] [E,G,]2 |] %16
w: Hal- le- lu- jah!|Hal- le- lu- jah!||all the way!|

